!!! OTL: Literature74
!!! Chapter: 5
!!! Section: II
!!! Page: 361
!!! Mode: 
!!! Encoder: ESM
**kern
*staff1
*I"Piano
=1-
*clefG2
*k[f#c#g#d#]
*E:
*M2/4
4g#/
4b\
=2
4cc#\
4b\
=3
4.a/
16cc#\LL
16b\JJ
=4
4a/
8g#/
8r
=5
4b\
4cc#\
=6
8dd#\L
8dd#\J
8dd#\L
ff#q/
8ee\J
=7
2cc#\
=8
4b\
4r
=9
4.g#/
16cc#\LL
16b\JJ
=10
8.b/L
16a/Jk
8f#/
8r
=11
4g#/
16e/LL
16g#/
16cc#/
16b/JJ
=12
8.b/L
16a/Jk
8f#/
8r
=13
!!linebreak:original
4.ee\
8ee\
=14
16ff#\LL
16ee\
16dd#\
16cc#\JJ
16b/LL
16a/
16g#/
16f#/JJ
=15
4e/
g#q/
4f#/
=16
2e/
==
*-
